!!!OTL: ACH WEM EIN RECHTES GEDENKEN BLUEHT
!!!ARE: Europa, Mitteleuropa, Deutschland
!!!SCT: F1126
!!!YEM: Copyright 1995, estate of Helmut Schaffrath.
**kern
*ICvox
*Ivox
*M6/8
*k[f#]
*G:
=1
{8dd
8ee
8dd
4g
16f#
16g
=2
4b
8a
4.g}
=3
{8cc
8b
8a
4g
8g
=4
2.dd}
=5
{8dd
8cc#
8dd
4ee
8b
=6
4dd
8cc
4.a}
=7
{8dd
8f#
8g
4b
8a
=8
2g
8r}
{8dd
=9
8dd
8cc
8b
8a
8b
8cc
=10
8cc
8b
8a
4g}
{8g
=11
8b
8a
8g
8f#
8e
8f#
=12
[4.g
4g]
8r}
=13
{8dd
8cc#
8dd
4ee
8b
=14
4dd
8cc
4a}
{8a
=15
8dd
8f#
8g
4b
8a
=16
2.g}
==
!!!AGN: Moral - Lied, Treue
!!!ONB: ESAC (Essen Associative Code) Database: FINK
!!!AMT: compound duple
!!!AIN: vox
!!!EED: Helmut Schaffrath
!!!EEV: 1.0
*-
